src/main/webapp/images/icons/ico-quote.svg

<?xml version="1.0" encoding="UTF-8" standalone="no"?>
<svg width="35px" height="35px" viewBox="0 0 35 35" version="1.1" xmlns="http://www.w3.org/2000/svg" xmlns:xlink="http://www.w3.org/1999/xlink" xmlns:sketch="http://www.bohemiancoding.com/sketch/ns">
    <!-- Generator: Sketch 3.3.2 (12043) - http://www.bohemiancoding.com/sketch -->
    <title>Fill 12 + Fill 13 + Fill 14</title>
    <desc>Created with Sketch.</desc>
    <defs></defs>
    <g id="Page-1" stroke="none" stroke-width="1" fill="none" fill-rule="evenodd" sketch:type="MSPage">
        <g id="Fill-12-+-Fill-13-+-Fill-14" sketch:type="MSLayerGroup">
            <path d="M34.395,17.939 C34.479,8.648 27.014,1.049 17.723,0.965 C8.43,0.881 0.83,8.348 0.748,17.639 C0.664,26.93 8.129,34.529 17.42,34.613 C26.713,34.697 34.313,27.232 34.395,17.939" id="Fill-12" fill="#A9D6F6" sketch:type="MSShapeGroup"></path>
            <path d="M9.484,13.754 C9.586,13.787 9.664,13.854 9.723,13.953 C9.906,14.279 9.998,14.519 9.998,14.678 L9.973,14.777 C9.889,14.836 9.697,14.965 9.398,15.164 C8.881,15.498 8.521,15.805 8.322,16.088 C8.037,16.471 7.896,16.846 7.896,17.211 C7.896,17.734 8.221,18.139 8.871,18.422 C9.305,18.613 9.609,18.812 9.785,19.021 C10.027,19.305 10.148,19.621 10.148,19.973 C10.148,20.457 9.965,20.879 9.598,21.242 C9.23,21.606 8.797,21.787 8.297,21.787 C7.613,21.787 6.994,21.478 6.439,20.861 C5.885,20.246 5.607,19.463 5.607,18.514 C5.607,17.34 5.998,16.291 6.783,15.365 C7.566,14.441 8.467,13.904 9.484,13.754 L9.484,13.754 Z M14.633,13.779 C14.801,13.805 14.953,13.902 15.096,14.076 C15.287,14.314 15.383,14.512 15.383,14.668 L15.334,14.84 C14.441,15.398 13.865,15.848 13.607,16.193 C13.348,16.539 13.219,16.92 13.219,17.336 C13.219,17.586 13.269,17.773 13.369,17.896 C13.512,18.072 13.836,18.289 14.346,18.547 C15.088,18.93 15.459,19.451 15.459,20.109 C15.459,20.543 15.271,20.935 14.896,21.285 C14.521,21.637 14.062,21.81 13.519,21.81 C12.852,21.81 12.25,21.514 11.711,20.92 C11.174,20.324 10.904,19.592 10.904,18.719 C10.904,18.004 11.059,17.301 11.367,16.611 C11.676,15.92 12.127,15.336 12.719,14.857 C13.31,14.381 13.949,14.021 14.633,13.779 L14.633,13.779 Z" id="Fill-13" fill="#FFFFFF" sketch:type="MSShapeGroup"></path>
            <path d="M19.723,20.873 C19.814,20.74 19.977,20.615 20.211,20.498 C20.678,20.256 21.061,19.93 21.361,19.521 C21.662,19.113 21.812,18.725 21.812,18.357 C21.812,17.908 21.586,17.562 21.137,17.32 C20.494,16.986 20.09,16.715 19.922,16.506 C19.705,16.232 19.598,15.91 19.598,15.543 C19.598,15.068 19.777,14.658 20.135,14.31 C20.494,13.965 20.932,13.793 21.449,13.793 C22.115,13.793 22.726,14.102 23.281,14.719 C23.836,15.336 24.113,16.102 24.113,17.019 C24.113,17.945 23.881,18.793 23.412,19.559 C22.945,20.326 22.32,20.935 21.537,21.387 C21.027,21.678 20.631,21.824 20.348,21.824 C20.215,21.824 20.098,21.766 19.998,21.648 C19.873,21.498 19.781,21.24 19.723,20.873 L19.723,20.873 Z M25.045,20.836 C25.152,20.736 25.287,20.644 25.445,20.56 C25.937,20.285 26.35,19.951 26.684,19.559 C27.01,19.168 27.172,18.771 27.172,18.371 C27.172,18.088 27.105,17.857 26.971,17.684 C26.83,17.508 26.512,17.295 26.021,17.045 C25.721,16.894 25.545,16.795 25.496,16.744 C25.328,16.594 25.195,16.42 25.096,16.219 C24.994,16.019 24.945,15.799 24.945,15.557 C24.945,15.105 25.123,14.707 25.482,14.361 C25.842,14.016 26.287,13.842 26.822,13.842 C27.506,13.842 28.129,14.15 28.691,14.766 C29.254,15.383 29.535,16.152 29.535,17.078 C29.535,17.852 29.33,18.6 28.916,19.32 C28.504,20.039 27.91,20.666 27.135,21.199 C26.558,21.6 26.059,21.799 25.633,21.799 C25.533,21.799 25.432,21.729 25.332,21.59 C25.133,21.326 25.033,21.103 25.033,20.924 L25.045,20.836 L25.045,20.836 Z" id="Fill-14" fill="#FFFFFF" sketch:type="MSShapeGroup"></path>
        </g>
    </g>
</svg>

<svg id="Capa_1" data-name="Capa 1" xmlns="http://www.w3.org/2000/svg" width="33.65" height="33.65" viewBox="0 0 33.65 33.65"><defs><style>.cls-1{fill:#efefef;}.cls-2{fill:#3c3c3c;}</style></defs><title>ico-quote</title><g id="Page-1"><g id="Fill-12-_-Fill-13-_-Fill-14" data-name="Fill-12-+-Fill-13-+-Fill-14"><path id="Fill-12" class="cls-1" d="M34.4,17.94a16.82,16.82,0,1,0-17,16.67,16.82,16.82,0,0,0,17-16.67" transform="translate(-0.75 -0.96)"/><path id="Fill-13" class="cls-2" d="M9.48,13.75a.43.43,0,0,1,.24.2,1.73,1.73,0,0,1,.28.73l0,.1-.57.39a3.93,3.93,0,0,0-1.08.92,1.89,1.89,0,0,0-.43,1.12c0,.52.32.93,1,1.21a2.52,2.52,0,0,1,.91.6,1.43,1.43,0,0,1,.36,1,1.73,1.73,0,0,1-.55,1.27,1.79,1.79,0,0,1-1.3.55,2.46,2.46,0,0,1-1.86-.93,3.38,3.38,0,0,1-.83-2.35,4.73,4.73,0,0,1,1.18-3.15,4.34,4.34,0,0,1,2.7-1.61Zm5.15,0a.75.75,0,0,1,.46.3,1.05,1.05,0,0,1,.29.59l0,.17a6.88,6.88,0,0,0-1.73,1.35,1.86,1.86,0,0,0-.39,1.14.88.88,0,0,0,.15.56,3.25,3.25,0,0,0,1,.65,1.74,1.74,0,0,1,1.11,1.56,1.58,1.58,0,0,1-.56,1.18,1.93,1.93,0,0,1-1.38.52,2.4,2.4,0,0,1-1.81-.89,3.17,3.17,0,0,1-.81-2.2,5.13,5.13,0,0,1,.46-2.11,4.69,4.69,0,0,1,1.35-1.75,6.49,6.49,0,0,1,1.91-1.08Z" transform="translate(-0.75 -0.96)"/><path id="Fill-14" class="cls-2" d="M19.72,20.87a1.26,1.26,0,0,1,.49-.37,3.27,3.27,0,0,0,1.15-1,2,2,0,0,0,.45-1.16,1.13,1.13,0,0,0-.68-1,4.22,4.22,0,0,1-1.21-.81,1.51,1.51,0,0,1-.32-1,1.66,1.66,0,0,1,.54-1.23,1.82,1.82,0,0,1,1.31-.52,2.44,2.44,0,0,1,1.83.93,3.31,3.31,0,0,1,.83,2.3,4.77,4.77,0,0,1-.7,2.54,5.21,5.21,0,0,1-1.87,1.83,2.69,2.69,0,0,1-1.19.44.45.45,0,0,1-.35-.18,1.64,1.64,0,0,1-.27-.78Zm5.32,0a1.87,1.87,0,0,1,.4-.28,4.48,4.48,0,0,0,1.24-1,1.85,1.85,0,0,0,.49-1.19,1.1,1.1,0,0,0-.2-.69A3.14,3.14,0,0,0,26,17a2.86,2.86,0,0,1-.52-.3,1.71,1.71,0,0,1-.4-.52,1.43,1.43,0,0,1-.15-.66,1.61,1.61,0,0,1,.54-1.2,1.86,1.86,0,0,1,1.34-.52,2.5,2.5,0,0,1,1.87.92,3.3,3.3,0,0,1,.84,2.31,4.44,4.44,0,0,1-.62,2.24,5.78,5.78,0,0,1-1.78,1.88,2.77,2.77,0,0,1-1.5.6.4.4,0,0,1-.3-.21,1.21,1.21,0,0,1-.3-.67v-.09Z" transform="translate(-0.75 -0.96)"/></g></g></svg>
